icons/desktop-download-16.svg

<svg width="16" height="16" viewBox="0 0 16 16" xmlns="http://www.w3.org/2000/svg">
  <path fill-rule="evenodd" clip-rule="evenodd" d="M8.75 4.99998L8.75 0.75C8.75 0.335786 8.41421 0 8 0C7.58579 0 7.25 0.335786 7.25 0.75L7.25 4.99998H5.10356C4.88083 4.99998 4.76929 5.26926 4.92678 5.42675L7.82323 8.3232C7.92086 8.42083 8.07915 8.42083 8.17678 8.3232L11.0732 5.42675C11.2307 5.26926 11.1192 4.99998 10.8965 4.99998H8.75ZM1.5 2.75C1.5 2.61193 1.61193 2.5 1.75 2.5H4.75C5.16421 2.5 5.5 2.16421 5.5 1.75C5.5 1.33579 5.16421 1 4.75 1H1.75C0.783502 1 0 1.7835 0 2.75V10.25C0 11.2165 0.783501 12 1.75 12H5.47703C5.37794 13.041 4.95684 13.8724 4.18494 14.7568C3.99156 14.9784 3.94553 15.2926 4.06724 15.5604C4.18894 15.8281 4.4559 16 4.75001 16H11.25C11.5441 16 11.8111 15.8281 11.9328 15.5604C12.0545 15.2926 12.0085 14.9784 11.8151 14.7568C11.0432 13.8724 10.6221 13.041 10.523 12H14.25C15.2165 12 16 11.2165 16 10.25V2.75C16 1.7835 15.2165 1 14.25 1H11.25C10.8358 1 10.5 1.33579 10.5 1.75C10.5 2.16421 10.8358 2.5 11.25 2.5H14.25C14.3881 2.5 14.5 2.61193 14.5 2.75V10.25C14.5 10.3881 14.3881 10.5 14.25 10.5H1.75C1.61193 10.5 1.5 10.3881 1.5 10.25V2.75ZM9.01784 12H6.98218C6.91392 12.9377 6.651 13.7473 6.21733 14.5H9.78269C9.34903 13.7473 9.08611 12.9377 9.01784 12Z"/>
</svg>

<svg xmlns="http://www.w3.org/2000/svg" width="16" height="16" viewBox="0 0 16 16"><path fill-rule="evenodd" d="M8.75 5V.75a.75.75 0 00-1.5 0V5H5.104a.25.25 0 00-.177.427l2.896 2.896a.25.25 0 00.354 0l2.896-2.896A.25.25 0 0010.896 5H8.75zM1.5 2.75a.25.25 0 01.25-.25h3a.75.75 0 000-1.5h-3A1.75 1.75 0 000 2.75v7.5C0 11.216.784 12 1.75 12h3.727c-.1 1.041-.52 1.872-1.292 2.757A.75.75 0 004.75 16h6.5a.75.75 0 00.565-1.243c-.772-.885-1.193-1.716-1.292-2.757h3.727A1.75 1.75 0 0016 10.25v-7.5A1.75 1.75 0 0014.25 1h-3a.75.75 0 000 1.5h3a.25.25 0 01.25.25v7.5a.25.25 0 01-.25.25H1.75a.25.25 0 01-.25-.25v-7.5zM9.018 12H6.982a5.72 5.72 0 01-.765 2.5h3.566a5.72 5.72 0 01-.765-2.5z"/></svg>
